frontend/public/chat.svg

<?xml version="1.0" encoding="UTF-8" standalone="no" ?>
<!DOCTYPE svg PUBLIC "-//W3C//DTD SVG 1.1//EN" "http://www.w3.org/Graphics/SVG/1.1/DTD/svg11.dtd">
<svg xmlns="http://www.w3.org/2000/svg" xmlns:xlink="http://www.w3.org/1999/xlink" version="1.1" width="1080" height="1080" viewBox="0 0 1080 1080" xml:space="preserve">
<desc>Created with Fabric.js 5.2.4</desc>
<defs>
</defs>
<g transform="matrix(1 0 0 1 540 540)" id="abefbc5f-d6d2-4f4e-9daf-d58776d09981"  >
<rect style="stroke: none; stroke-width: 1; stroke-dasharray: none; stroke-linecap: butt; stroke-dashoffset: 0; stroke-linejoin: miter; stroke-miterlimit: 4; fill: rgb(255,255,255); fill-rule: nonzero; opacity: 1; visibility: hidden;" vector-effect="non-scaling-stroke"  x="-540" y="-540" rx="0" ry="0" width="1080" height="1080" />
</g>
<g transform="matrix(1 0 0 1 540 540)" id="2965d5e1-a20a-4b33-af40-10715b0db86c"  >
</g>
<g transform="matrix(8.79 0 0 8.79 558.57 565.4)" id="Layer_1"  >
<path style="stroke: rgb(0,0,0); stroke-width: 1; stroke-dasharray: none; stroke-linecap: butt; stroke-dashoffset: 0; stroke-linejoin: miter; stroke-miterlimit: 4; fill: rgb(0,0,255); fill-rule: nonzero; opacity: 1;"  transform=" translate(-61.42, -54.09)" d="M 51.16 93.74 C 64.16 106.22999999999999 82.42999999999999 110.00999999999999 100.75 102.19999999999999 L 116.12 108.19999999999999 L 111 96.13 C 128.07999999999998 82.44999999999999 125 63.65 112.44 50.83 C 111.6012215858867 55.70973441955275 109.95177696477593 60.41470760108186 107.56 64.75 C 104.03641619184856 71.04303005156152 99.22910518667355 76.52493182854705 93.45 80.84 C 87.52007150133102 85.31967736699372 80.83882530714116 88.70601603612188 73.72 90.84 C 66.40556260869141 93.01833252266897 58.78800418277518 94.00429309907304 51.16 93.76000000000002 Z M 74.74 36.13 C 77.4418077953294 36.129999999999995 79.87757819646798 37.75752974891692 80.9115152771754 40.25367467180119 C 81.9454523578828 42.74981959468546 81.37393991186623 45.62300668478604 79.46347329832615 47.533473298326136 C 77.55300668478606 49.44393991186623 74.67981959468547 50.01545235788281 72.1836746718012 48.9815152771754 C 69.68752974891693 47.94757819646799 68.06 45.5118077953294 68.06 42.81 C 68.06 41.038353847871846 68.76378369364099 39.339269709706734 70.01652670167387 38.08652670167386 C 71.26926970970673 36.833783693640996 72.96835384787185 36.13 74.74000000000001 36.13 Z M 30.589999999999996 36.13 C 34.279262128869696 36.13 37.269999999999996 39.1207378711303 37.269999999999996 42.81 C 37.269999999999996 46.4992621288697 34.279262128869696 49.49 30.59 49.49 C 26.9007378711303 49.49 23.909999999999997 46.4992621288697 23.909999999999997 42.81 C 23.909999999999997 39.1207378711303 26.900737871130296 36.13 30.589999999999996 36.13 Z M 52.669999999999995 36.13 C 55.37271412788768 36.12595401623475 57.81155191608539 37.75091602221093 58.8486405430806 40.24673797235592 C 59.885729170075805 42.74255992250092 59.3166877047276 45.61738567178061 57.40701015441392 47.52992630687737 C 55.497332604100244 49.44246694197413 52.62336257702636 50.01581462138702 50.125989737717944 48.98246621520789 C 47.628616898409526 47.94911780902876 46.00000302843266 45.512717156318665 46 42.81000000000002 C 46 39.1207378711303 48.9907378711303 36.13 52.68 36.13 Z M 54 0 L 54 0 C 68.42 0.44 81.35 5.56 90.6 13.49 C 100.00999999999999 21.560000000000002 105.6 32.49 105.3 44.49 L 105.3 44.49 C 104.94 56.49 98.64 67.1 88.75 74.6 C 79 82.05 65.8 86.4 51.38 86 C 47.45557255667846 85.88847917705618 43.54944883569377 85.41987821652675 39.709999999999994 84.6 C 36.29491038223852 83.86489142698197 32.94927872011776 82.83778250671091 29.709999999999994 81.53 L 7.15 90.37 L 14.690000000000001 72.45 C 10.274632931712517 68.71542801027825 6.641577822707436 64.14437176929431 4.0000000000000036 59.00000000000001 C 1.211953754936892 53.58307425952659 -0.16386487304070219 47.55010957584487 -7.105427357601002e-15 41.46000000000001 C 0.36 29.46 6.66 18.85 16.55 11.34 C 26.3 4 39.53 -0.4 54 0 Z M 53.86 5.2 L 53.86 5.2 C 40.59 4.82 28.52 8.77 19.69 15.46 C 11 22 5.5 31.28 5.19 41.6 C 5.0482663945460855 46.830642334893845 6.224338956862991 52.01292698814405 8.610000000000007 56.67000000000001 C 11.227763826917975 61.73611111757192 14.916402646330322 66.17203199198086 19.420000000000005 69.67000000000002 L 21 70.87 L 16.68 81.05 L 29.759999999999998 75.91 L 30.759999999999998 76.33 C 34.00171084544594 77.70594151132158 37.36683573999239 78.7707272988497 40.809999999999995 79.50999999999999 C 44.33311717502002 80.26614740227883 47.91809776850934 80.69795178748905 51.52 80.80000000000001 C 64.74000000000001 81.19 76.81 77.24 85.64 70.53999999999999 C 94.31 64 99.83 54.73 100.15 44.4 L 100.15 44.4 C 100.45 34.08 95.5 24.549999999999997 87.25 17.479999999999997 C 78.85 10.26 67.06 5.6 53.87 5.2 Z" stroke-linecap="round" />
</g>
</svg>
</svg>

</svg>

<svg id="Layer_1" data-name="Layer 1" xmlns="http://www.w3.org/2000/svg" viewBox="0 0 122.88 108.25">
  <defs>
    <style>
      .cls-1 { fill-rule:evenodd; fill: blue; }
    </style>
  </defs>
  <title>chat-bubble</title>
  <path class="cls-1" d="M51.16,93.74c13,12.49,31.27,16.27,49.59,8.46l15.37,6L111,96.13c17.08-13.68,14-32.48,1.44-45.3a44.38,44.38,0,0,1-4.88,13.92A51.45,51.45,0,0,1,93.45,80.84a62.51,62.51,0,0,1-19.73,10,71.07,71.07,0,0,1-22.56,2.92ZM74.74,36.13a6.68,6.68,0,1,1-6.68,6.68,6.68,6.68,0,0,1,6.68-6.68Zm-44.15,0a6.68,6.68,0,1,1-6.68,6.68,6.68,6.68,0,0,1,6.68-6.68Zm22.08,0A6.68,6.68,0,1,1,46,42.81a6.68,6.68,0,0,1,6.68-6.68ZM54,0H54c14.42.44,27.35,5.56,36.6,13.49,9.41,8.07,15,19,14.7,31v0c-.36,12-6.66,22.61-16.55,30.11C79,82.05,65.8,86.4,51.38,86a64.68,64.68,0,0,1-11.67-1.4,61,61,0,0,1-10-3.07L7.15,90.37l7.54-17.92A43.85,43.85,0,0,1,4,59,36.2,36.2,0,0,1,0,41.46c.36-12,6.66-22.61,16.55-30.12C26.3,4,39.53-.4,54,0ZM53.86,5.2h0C40.59,4.82,28.52,8.77,19.69,15.46,11,22,5.5,31.28,5.19,41.6A31.2,31.2,0,0,0,8.61,56.67a39.31,39.31,0,0,0,10.81,13L21,70.87,16.68,81.05l13.08-5.14,1,.42a55.59,55.59,0,0,0,10.05,3.18A59,59,0,0,0,51.52,80.8c13.22.39,25.29-3.56,34.12-10.26C94.31,64,99.83,54.73,100.15,44.4v0c.3-10.32-4.65-19.85-12.9-26.92C78.85,10.26,67.06,5.6,53.87,5.2Z"/>
</svg>
